Dominus_Dark_Funeral/22/apps/h2-icon.svg

<svg xmlns="http://www.w3.org/2000/svg" width="24" height="24" viewBox="0 0 6.35 6.35"><defs><linearGradient id="b"><stop offset="0" stop-color="#ff2a2a"/><stop offset=".66" stop-color="#c83737"/><stop offset=".82" stop-color="#de8787"/><stop offset=".91" stop-color="#c83737"/><stop offset="1" stop-color="#c83737"/></linearGradient><linearGradient id="a"><stop offset="0"/><stop offset="1" stop-color="#0b0000" stop-opacity="0"/></linearGradient></defs><path d="M.15 1.36v3.63h1.4v-.96h.96v.92c0 .02.02.03.03.04h3.63c0-.01.03-.02.03-.04V1.37l-.01-.01H2.52v1.3h-.97v-1.3zm3.03.4h2.4v1.83H3.95v.38h1.63v.72h-2.4V2.86h1.67v-.38H3.18z" stroke-width=".7" fill="#e6e6e6"/></svg>

<?xml version="1.0" encoding="UTF-8" standalone="no"?>
<svg
   xmlns:dc="http://purl.org/dc/elements/1.1/"
   xmlns:cc="http://creativecommons.org/ns#"
   xmlns:rdf="http://www.w3.org/1999/02/22-rdf-syntax-ns#"
   xmlns:svg="http://www.w3.org/2000/svg"
   xmlns="http://www.w3.org/2000/svg"
   xmlns:sodipodi="http://sodipodi.sourceforge.net/DTD/sodipodi-0.dtd"
   xmlns:inkscape="http://www.inkscape.org/namespaces/inkscape"
   width="24"
   height="24"
   viewBox="0 0 6.35 6.35"
   version="1.1"
   id="svg22"
   sodipodi:docname="h2-icon.svg"
   inkscape:version="0.92.4 (5da689c313, 2019-01-14)">
  <metadata
     id="metadata26">
    <rdf:RDF>
      <cc:Work
         rdf:about="">
        <dc:format>image/svg+xml</dc:format>
        <dc:type
           rdf:resource="http://purl.org/dc/dcmitype/StillImage" />
        <dc:title></dc:title>
      </cc:Work>
    </rdf:RDF>
  </metadata>
  <sodipodi:namedview
     pagecolor="#ffffff"
     bordercolor="#666666"
     borderopacity="1"
     objecttolerance="10"
     gridtolerance="10"
     guidetolerance="10"
     inkscape:pageopacity="0"
     inkscape:pageshadow="2"
     inkscape:window-width="1138"
     inkscape:window-height="480"
     id="namedview24"
     showgrid="false"
     inkscape:zoom="9.8333333"
     inkscape:cx="1.0677966"
     inkscape:cy="12"
     inkscape:window-x="0"
     inkscape:window-y="25"
     inkscape:window-maximized="0"
     inkscape:current-layer="svg22" />
  <defs
     id="defs18">
    <linearGradient
       id="b">
      <stop
         offset="0"
         stop-color="#ff2a2a"
         id="stop2" />
      <stop
         offset=".66"
         stop-color="#c83737"
         id="stop4" />
      <stop
         offset=".82"
         stop-color="#de8787"
         id="stop6" />
      <stop
         offset=".91"
         stop-color="#c83737"
         id="stop8" />
      <stop
         offset="1"
         stop-color="#c83737"
         id="stop10" />
    </linearGradient>
    <linearGradient
       id="a">
      <stop
         offset="0"
         id="stop13" />
      <stop
         offset="1"
         stop-color="#0b0000"
         stop-opacity="0"
         id="stop15" />
    </linearGradient>
  </defs>
  <path
     d="m 0.15,1.36 v 3.63 h 1.4 V 4.03 h 0.96 v 0.92 c 0,0.02 0.02,0.03 0.03,0.04 H 6.17 C 6.17,4.98 6.2,4.97 6.2,4.95 V 1.37 L 6.19,1.36 H 2.52 v 1.3 H 1.55 v -1.3 z m 3.03,0.4 h 2.4 V 3.59 H 3.95 V 3.97 H 5.58 V 4.69 H 3.18 V 2.86 H 4.85 V 2.48 H 3.18 Z"
     id="path20"
     inkscape:connector-curvature="0"
     style="fill:#e6e6e6;stroke-width:0.69999999" />
</svg>
